contributed-vectors/aplano.svg

<svg xmlns="http://www.w3.org/2000/svg" xml:space="preserve" style="fill-rule:evenodd;clip-rule:evenodd;stroke-linejoin:round;stroke-miterlimit:2" viewBox="0 0 192 192"><circle cx="96" cy="96" r="88" style="fill:#ececec"/><path d="M128.196 202.838c0-12.368 3.591-31.332 10.772-56.892-22.477.549-39.684 1.191-51.622 1.924a539.904 539.904 0 0 0-9.932 18.551l-8.674 16.903c-11.472 22.171-21.777 36.783-30.917 43.837-6.995 5.497-14.409 8.245-22.244 8.245-5.969 0-10.492-1.924-13.57-5.771-1.119-1.558-1.772-3.047-1.958-4.467-.187-1.42.14-2.359.979-2.817 10.726-3.939 19.446-9.94 26.161-18.002 5.875-7.237 11.751-16.078 17.627-26.522l15.808-27.759-8.813 1.237c-5.596 1.008-8.394.138-8.394-2.611 0-2.748 1.679-5.359 5.036-7.833 5.876-4.306 11.611-7.146 17.207-8.52l6.016-1.374c15.295-24.827 26.976-42.188 35.044-52.082 8.067-9.895 15.435-18.14 22.104-24.736 6.668-6.596 13.686-12.413 21.054-17.452 16.135-10.902 32.036-16.353 47.705-16.353 4.756 0 7.974.962 9.652 2.886 2.798 3.023 3.684 6.252 2.659 9.688-1.026 3.435-2.705 8.359-5.037 14.772-14.922 39.944-24.015 64.679-27.28 74.207a67.254 67.254 0 0 1 4.057-.137h3.078c10.446 0 16.042 1.008 16.788 3.023.186.641.28 1.809.28 3.504s-.537 3.642-1.609 5.841c-1.073 2.198-2.822 4.076-5.246 5.634-4.943 3.298-13.244 5.222-24.902 5.771-6.342 21.53-9.956 36.417-10.842 44.662-.886 8.245-.606 13.811.839 16.697 1.446 2.885 3.498 4.328 6.156 4.328 2.658 0 4.826-.252 6.505-.756 1.679-.503 3.171-1.076 4.477-1.717l3.637-1.649c.933-.55 1.889-.825 2.868-.825.979 0 1.795.619 2.448 1.855.653 1.237.979 2.863.979 4.879 0 2.015-.862 4.42-2.588 7.214-1.725 2.795-3.987 5.291-6.785 7.49-6.528 5.13-13.896 7.695-22.103 7.695-12.591 0-20.985-5.496-25.182-16.49-1.492-3.848-2.238-7.283-2.238-10.307v-5.771m-27.403-77.869c16.659-2.071 32.101-3.287 46.327-3.647a481.224 481.224 0 0 1 8.423-22.961l8.704-21.611a715.767 715.767 0 0 1 8.844-19.449l8.142-16.613c-19.466 4.862-38.699 21.025-57.698 48.488a429.607 429.607 0 0 0-11.792 17.829l-10.95 17.964" style="fill:#54688c;fill-rule:nonzero" transform="matrix(.25006 0 0 .25006 69.705 64.023)"/></svg>

<?xml version="1.0" encoding="UTF-8" standalone="no"?>
<!DOCTYPE svg PUBLIC "-//W3C//DTD SVG 1.1//EN" "http://www.w3.org/Graphics/SVG/1.1/DTD/svg11.dtd">
<svg width="100%" height="100%" viewBox="0 0 192 192" version="1.1" xmlns="http://www.w3.org/2000/svg" xmlns:xlink="http://www.w3.org/1999/xlink" xml:space="preserve" xmlns:serif="http://www.serif.com/" style="fill-rule:evenodd;clip-rule:evenodd;stroke-linejoin:round;stroke-miterlimit:2;">
    <g id="Aplano">
        <g>
            <circle cx="96" cy="96" r="88" style="fill:rgb(236,236,236);"/>
        </g>
        <g id="Aplano1" serif:id="Aplano" transform="matrix(0.250064,0,0,0.250064,69.7047,64.023)">
            <path d="M128.196,202.838C128.196,190.47 131.787,171.506 138.968,145.946C116.491,146.495 99.284,147.137 87.346,147.87C83.709,154.374 80.398,160.558 77.414,166.421L68.74,183.324C57.268,205.495 46.963,220.107 37.823,227.161C30.828,232.658 23.414,235.406 15.579,235.406C9.61,235.406 5.087,233.482 2.009,229.635C0.89,228.077 0.237,226.588 0.051,225.168C-0.136,223.748 0.191,222.809 1.03,222.351C11.756,218.412 20.476,212.411 27.191,204.349C33.066,197.112 38.942,188.271 44.818,177.827L60.626,150.068L51.813,151.305C46.217,152.313 43.419,151.443 43.419,148.694C43.419,145.946 45.098,143.335 48.455,140.861C54.331,136.555 60.066,133.715 65.662,132.341L71.678,130.967C86.973,106.14 98.654,88.779 106.722,78.885C114.789,68.99 122.157,60.745 128.826,54.149C135.494,47.553 142.512,41.736 149.88,36.697C166.015,25.795 181.916,20.344 197.585,20.344C202.341,20.344 205.559,21.306 207.237,23.23C210.035,26.253 210.921,29.482 209.896,32.918C208.87,36.353 207.191,41.277 204.859,47.69C189.937,87.634 180.844,112.369 177.579,121.897C179.072,121.806 180.424,121.76 181.636,121.76L184.714,121.76C195.16,121.76 200.756,122.768 201.502,124.783C201.688,125.424 201.782,126.592 201.782,128.287C201.782,129.982 201.245,131.929 200.173,134.128C199.1,136.326 197.351,138.204 194.927,139.762C189.984,143.06 181.683,144.984 170.025,145.533C163.683,167.063 160.069,181.95 159.183,190.195C158.297,198.44 158.577,204.006 160.022,206.892C161.468,209.777 163.52,211.22 166.178,211.22C168.836,211.22 171.004,210.968 172.683,210.464C174.362,209.961 175.854,209.388 177.16,208.747L180.797,207.098C181.73,206.548 182.686,206.273 183.665,206.273C184.644,206.273 185.46,206.892 186.113,208.128C186.766,209.365 187.092,210.991 187.092,213.007C187.092,215.022 186.23,217.427 184.504,220.221C182.779,223.016 180.517,225.512 177.719,227.711C171.191,232.841 163.823,235.406 155.616,235.406C143.025,235.406 134.631,229.91 130.434,218.916C128.942,215.068 128.196,211.633 128.196,208.609L128.196,202.838M100.793,124.969C117.452,122.898 132.894,121.682 147.12,121.322C149.74,113.578 152.548,105.924 155.543,98.361L164.247,76.75C167.242,69.907 170.19,63.424 173.091,57.301L181.233,40.688C161.767,45.55 142.534,61.713 123.535,89.176C119.511,94.939 115.58,100.882 111.743,107.005L100.793,124.969" style="fill:rgb(84,104,140);fill-rule:nonzero;"/>
        </g>
    </g>
</svg>
